app/assets/images/idv/state-id-and-fair-evidence-documents.svg

<svg width="112" height="108" viewBox="0 0 112 108" fill="none" xmlns="http://www.w3.org/2000/svg">
<circle cx="71.5703" cy="40.7949" r="40" fill="#EBF3FA"/>
<path fill-rule="evenodd" clip-rule="evenodd" d="M84.8656 64.2068H5.14062C2.93162 64.2068 1.14062 62.4158 1.14062 60.2068V21.3838C1.14062 19.1748 2.93162 17.3838 5.14062 17.3838H84.8656C87.0746 17.3838 88.8656 19.1748 88.8656 21.3838V60.2068C88.8656 62.4158 87.0746 64.2068 84.8656 64.2068Z" fill="white"/>
<path fill-rule="evenodd" clip-rule="evenodd" d="M84.8656 64.2068H5.14062C2.93162 64.2068 1.14062 62.4158 1.14062 60.2068V21.3838C1.14062 19.1748 2.93162 17.3838 5.14062 17.3838H84.8656C87.0746 17.3838 88.8656 19.1748 88.8656 21.3838V60.2068C88.8656 62.4158 87.0746 64.2068 84.8656 64.2068Z" stroke="#112E51"/>
<path fill-rule="evenodd" clip-rule="evenodd" d="M28.9117 59.1908H8.36268C7.45523 59.1908 6.71875 58.5297 6.71875 57.7151V34.1036C6.71875 33.2891 7.45523 32.6279 8.36268 32.6279H28.9117C29.8192 32.6279 30.5557 33.2891 30.5557 34.1036V57.7151C30.5557 58.5297 29.8192 59.1908 28.9117 59.1908Z" fill="#EBF3FA"/>
<mask id="mask0_628_24410" style="mask-type:luminance" maskUnits="userSpaceOnUse" x="8" y="35" width="21" height="25">
<path fill-rule="evenodd" clip-rule="evenodd" d="M12.9302 40.8143V41.4201C12.368 41.513 11.9389 41.9971 11.9389 42.5807V43.9542C11.9389 44.5485 12.3828 45.0384 12.9598 45.1198C13.1653 47.0629 14.3941 48.7052 16.1038 49.5074V51.3116H15.7068C11.763 51.3116 8.56641 54.4745 8.56641 58.3764V59.2583H28.4012V58.3764C28.4012 54.4745 25.2038 51.3116 21.2608 51.3116H20.8638V49.5074C22.5735 48.7052 23.8023 47.0629 24.007 45.1198C24.5848 45.0384 25.0287 44.5485 25.0287 43.9542V42.5807C25.0287 41.9971 24.6004 41.513 24.0374 41.4201V40.8143C24.0374 37.7804 21.5509 35.3203 18.4842 35.3203C15.4166 35.3203 12.9302 37.7804 12.9302 40.8143Z" fill="white"/>
</mask>
<g mask="url(#mask0_628_24410)">
<path fill-rule="evenodd" clip-rule="evenodd" d="M1.28125 63.3686H35.6828V31.2109H1.28125V63.3686Z" fill="#C8D3DD"/>
</g>
<path d="M56.248 25.5156C56.248 24.4111 57.1435 23.5156 58.248 23.5156H81.5859C82.6905 23.5156 83.5859 24.4111 83.5859 25.5156V48.8535C83.5859 49.9581 82.6905 50.8535 81.5859 50.8535H58.248C57.1435 50.8535 56.248 49.9581 56.248 48.8535V25.5156Z" fill="#EBF3FA"/>
<rect x="6.71875" y="23.5156" width="44.4873" height="3.34375" rx="1.67188" fill="#C8D3DD"/>
<rect x="6.71875" y="23.5156" width="44.4873" height="3.34375" rx="1.67188" fill="#C8D3DD"/>
<rect x="34.9043" y="31.4404" width="16.3027" height="3.34375" rx="1.67188" fill="#C8D3DD"/>
<rect x="34.9043" y="39.3652" width="16.3027" height="3.34375" rx="1.67188" fill="#C8D3DD"/>
<rect x="34.9043" y="47.29" width="16.3027" height="3.34375" rx="1.67188" fill="#C8D3DD"/>
<rect x="34.9043" y="55.8193" width="12.3" height="3.34375" rx="1.67188" fill="#C8D3DD"/>
<rect x="52.6738" y="55.8193" width="29.9717" height="3.34375" rx="1.67188" fill="#C8D3DD"/>
<rect x="45.916" y="30.2949" width="54.7831" height="68.7505" rx="1.12798" fill="white" stroke="#112E51"/>
<rect x="34.6055" y="38.5156" width="54.7831" height="68.7505" rx="1.12798" fill="white" stroke="#112E51"/>
<rect x="39.5938" y="44.502" width="22.4023" height="2.21133" rx="1.10567" fill="#C8D3DD"/>
<rect x="39.5938" y="49.2744" width="15.7891" height="2.21133" rx="1.10567" fill="#C8D3DD"/>
<rect x="39.5938" y="59.3164" width="15.7891" height="2.21133" rx="1.10567" fill="#C8D3DD"/>
<rect x="39.5938" y="83.457" width="15.7891" height="2.21133" rx="1.10567" fill="#C8D3DD"/>
<rect x="39.5938" y="65.3516" width="44.7598" height="2.21133" rx="1.10567" fill="#C8D3DD"/>
<rect x="39.5938" y="77.4219" width="14.7939" height="2.21133" rx="1.10567" fill="#C8D3DD"/>
<rect x="55.3828" y="77.4219" width="28.9707" height="2.21133" rx="1.10567" fill="#C8D3DD"/>
<rect x="39.5938" y="71.3867" width="27.4736" height="2.21133" rx="1.10567" fill="#C8D3DD"/>
<rect x="68.3398" y="71.3867" width="16.0156" height="2.21133" rx="1.10567" fill="#C8D3DD"/>
<rect x="71.8066" y="44.502" width="12.5137" height="2.21133" rx="1.10567" fill="#C8D3DD"/>
<circle cx="91.7114" cy="37.731" r="13.2713" fill="#EBF3FA" stroke="#112E51" stroke-width="0.755316"/>
<mask id="mask1_628_24410" style="mask-type:luminance" maskUnits="userSpaceOnUse" x="82" y="27" width="20" height="24">
<path fill-rule="evenodd" clip-rule="evenodd" d="M86.3895 32.9142V33.4948C85.8507 33.5838 85.4394 34.0479 85.4394 34.6072V35.9236C85.4394 36.4932 85.8649 36.9628 86.4179 37.0408C86.6149 38.9032 87.7926 40.4772 89.4313 41.2461V42.9754H89.0508C85.2708 42.9754 82.207 46.0069 82.207 49.7466V50.5919H101.218V49.7466C101.218 46.0069 98.1532 42.9754 94.374 42.9754H93.9935V41.2461C95.6322 40.4772 96.81 38.9032 97.0061 37.0408C97.56 36.9628 97.9854 36.4932 97.9854 35.9236V34.6072C97.9854 34.0479 97.5749 33.5838 97.0353 33.4948V32.9142C97.0353 30.0064 94.6521 27.6484 91.7128 27.6484C88.7727 27.6484 86.3895 30.0064 86.3895 32.9142Z" fill="white"/>
</mask>
<g mask="url(#mask1_628_24410)">
<path d="M104.716 37.5874C104.716 44.7695 98.8936 50.5918 91.7114 50.5918C84.5293 50.5918 78.707 44.7695 78.707 37.5874C78.707 30.4053 84.5293 24.583 91.7114 24.583C98.8936 24.583 104.716 30.4053 104.716 37.5874Z" fill="#0071BB"/>
</g>
</svg>

<svg xmlns="http://www.w3.org/2000/svg" width="112" height="108" fill="none" viewBox="0 0 112 108"><circle cx="71.57" cy="40.795" r="40" fill="#EBF3FA"/><path fill="#fff" fill-rule="evenodd" d="M84.866 64.207H5.14a4 4 0 0 1-4-4V21.384a4 4 0 0 1 4-4h79.725a4 4 0 0 1 4 4v38.823a4 4 0 0 1-4 4" clip-rule="evenodd"/><path stroke="#112E51" d="M84.866 64.207H5.14a4 4 0 0 1-4-4V21.384a4 4 0 0 1 4-4h79.725a4 4 0 0 1 4 4v38.823a4 4 0 0 1-4 4Z" clip-rule="evenodd"/><path fill="#EBF3FA" fill-rule="evenodd" d="M28.912 59.19H8.362c-.907 0-1.643-.66-1.643-1.475V34.104c0-.815.736-1.476 1.644-1.476h20.549c.907 0 1.644.661 1.644 1.476v23.611c0 .815-.737 1.476-1.644 1.476" clip-rule="evenodd"/><mask id="a" width="21" height="25" x="8" y="35" maskUnits="userSpaceOnUse" style="mask-type:luminance"><path fill="#fff" fill-rule="evenodd" d="M12.93 40.814v.606a1.18 1.18 0 0 0-.991 1.16v1.374c0 .594.444 1.084 1.02 1.166a5.5 5.5 0 0 0 3.145 4.387v1.805h-.397c-3.944 0-7.14 3.163-7.14 7.064v.882H28.4v-.882c0-3.901-3.197-7.064-7.14-7.064h-.397v-1.805a5.5 5.5 0 0 0 3.143-4.387 1.18 1.18 0 0 0 1.022-1.166v-1.373a1.18 1.18 0 0 0-.992-1.16v-.607c0-3.034-2.486-5.494-5.553-5.494s-5.554 2.46-5.554 5.494" clip-rule="evenodd"/></mask><g mask="url(#a)"><path fill="#C8D3DD" fill-rule="evenodd" d="M1.281 63.369h34.402V31.21H1.28z" clip-rule="evenodd"/></g><path fill="#EBF3FA" d="M56.248 25.516a2 2 0 0 1 2-2h23.338a2 2 0 0 1 2 2v23.338a2 2 0 0 1-2 2H58.248a2 2 0 0 1-2-2z"/><rect width="44.487" height="3.344" x="6.719" y="23.516" fill="#C8D3DD" rx="1.672"/><rect width="44.487" height="3.344" x="6.719" y="23.516" fill="#C8D3DD" rx="1.672"/><rect width="16.303" height="3.344" x="34.904" y="31.44" fill="#C8D3DD" rx="1.672"/><rect width="16.303" height="3.344" x="34.904" y="39.365" fill="#C8D3DD" rx="1.672"/><rect width="16.303" height="3.344" x="34.904" y="47.29" fill="#C8D3DD" rx="1.672"/><rect width="12.3" height="3.344" x="34.904" y="55.819" fill="#C8D3DD" rx="1.672"/><rect width="29.972" height="3.344" x="52.674" y="55.819" fill="#C8D3DD" rx="1.672"/><rect width="54.783" height="68.751" x="45.916" y="30.295" fill="#fff" stroke="#112E51" rx="1.128"/><rect width="54.783" height="68.751" x="34.605" y="38.516" fill="#fff" stroke="#112E51" rx="1.128"/><rect width="22.402" height="2.211" x="39.594" y="44.502" fill="#C8D3DD" rx="1.106"/><rect width="15.789" height="2.211" x="39.594" y="49.274" fill="#C8D3DD" rx="1.106"/><rect width="15.789" height="2.211" x="39.594" y="59.316" fill="#C8D3DD" rx="1.106"/><rect width="15.789" height="2.211" x="39.594" y="83.457" fill="#C8D3DD" rx="1.106"/><rect width="44.76" height="2.211" x="39.594" y="65.352" fill="#C8D3DD" rx="1.106"/><rect width="14.794" height="2.211" x="39.594" y="77.422" fill="#C8D3DD" rx="1.106"/><rect width="28.971" height="2.211" x="55.383" y="77.422" fill="#C8D3DD" rx="1.106"/><rect width="27.474" height="2.211" x="39.594" y="71.387" fill="#C8D3DD" rx="1.106"/><rect width="16.016" height="2.211" x="68.34" y="71.387" fill="#C8D3DD" rx="1.106"/><rect width="12.514" height="2.211" x="71.807" y="44.502" fill="#C8D3DD" rx="1.106"/><circle cx="91.711" cy="37.731" r="13.271" fill="#EBF3FA" stroke="#112E51" stroke-width=".755"/><mask id="b" width="20" height="24" x="82" y="27" maskUnits="userSpaceOnUse" style="mask-type:luminance"><path fill="#fff" fill-rule="evenodd" d="M86.39 32.914v.58c-.54.09-.95.554-.95 1.113v1.317c0 .57.425 1.039.978 1.117a5.27 5.27 0 0 0 3.013 4.205v1.73h-.38c-3.78 0-6.844 3.03-6.844 6.77v.846h19.011v-.845c0-3.74-3.065-6.772-6.844-6.772h-.38v-1.729a5.27 5.27 0 0 0 3.012-4.205c.554-.078.98-.548.98-1.117v-1.317a1.13 1.13 0 0 0-.95-1.112v-.58c0-2.909-2.384-5.267-5.323-5.267s-5.323 2.358-5.323 5.266" clip-rule="evenodd"/></mask><g mask="url(#b)"><path fill="#0071BB" d="M104.716 37.587c0 7.182-5.822 13.005-13.005 13.005-7.182 0-13.004-5.822-13.004-13.005 0-7.182 5.822-13.004 13.004-13.004 7.183 0 13.005 5.822 13.005 13.004"/></g></svg>
